!!!OTL: ALS ICH EIN JUENGLING WAR
!!!ARE: Europa, Mitteleuropa, Deutschland, Hochwald, Allenbach; Pleizenhausen
!!!SCT: B0605
!!!YEM: Copyright 1995, estate of Helmut Schaffrath.
**kern
*ICvox
*Ivox
*M6/8
*k[f#c#]
*D:
=1
{4.A
4.F#
=2
4.A
4.F#}
=3
{8.A
16A
8A
4B
8A
=4
4.G
4.r}
=5
{4.G
4.E
=6
4.G
4.E}
=7
{8.A
16A
8A
4c#
8B
=8
4.A
4r}
{8A
=9
4F#
8A
4d
8c#
=10
4.B
4r}
{8G
=11
4E
8G
4c#
8B
=12
4.A
4.r}
=13
{4.d
4.d
=14
4.e
4.B}
=15
{8.c#
16c#
8c#
8c#
8B
8A
=16
[4.d
4d]
8r}
=17
{4.f#
4.B
=18
4.e
4.A}
=19
{8.A
16A
8A
4f#
8e
=20
4.d
4.r}
==
!!!AGN: Staende -, Seemanns - Lied, Tod
!!!ONB: ESAC (Essen Associative Code) Database: BOEHME
!!!AMT: compound duple
!!!AIN: vox
!!!EED: Helmut Schaffrath
!!!EEV: 1.0
*-
